src/lib/packages/icons/src/assets/line/home-heart.svg

<svg width="24" height="24" viewBox="0 0 24 24" fill="none" xmlns="http://www.w3.org/2000/svg">
<path d="M20.208 8.14101L14.088 3.01003C12.879 1.99503 11.121 1.99503 9.91199 3.01003L3.79199 8.14101C2.83599 8.93401 2.25 9.52804 2.25 11.65V18C2.25 20.418 3.582 21.75 6 21.75H18C20.418 21.75 21.75 20.418 21.75 18V11.65C21.75 9.52804 21.164 8.93401 20.208 8.14101ZM20.25 18C20.25 19.577 19.577 20.25 18 20.25H6C4.423 20.25 3.75 19.577 3.75 18V11.65C3.75 10.124 4.00202 9.91506 4.74902 9.29506L10.875 4.15908C11.201 3.88608 11.601 3.74904 12 3.74904C12.399 3.74904 12.799 3.88608 13.125 4.15908L19.251 9.29506C19.998 9.91506 20.25 10.124 20.25 11.65V18ZM13.771 9.25002C13.766 9.25002 13.761 9.25002 13.757 9.25002C12.988 9.25002 12.409 9.56696 11.999 9.96596C11.589 9.56696 11.01 9.25002 10.24 9.25002C10.236 9.25002 10.231 9.25002 10.226 9.25002C9.30295 9.25402 8.52904 9.60596 7.98804 10.268C7.33604 11.063 7.09901 12.218 7.33801 13.438C7.92701 16.452 11.537 18.115 11.691 18.184C11.789 18.228 11.894 18.25 12 18.25C12.106 18.25 12.211 18.228 12.309 18.184C12.462 18.115 16.073 16.452 16.662 13.438C16.9 12.217 16.6629 11.062 16.0129 10.268C15.4699 9.60596 14.695 9.25402 13.771 9.25002ZM15.188 13.1491C14.833 14.9671 12.788 16.2321 12 16.6591C11.212 16.2331 9.16701 14.9681 8.81201 13.1491C8.66201 12.3811 8.78802 11.659 9.15002 11.218C9.40202 10.909 9.76796 10.752 10.236 10.75C10.238 10.75 10.239 10.75 10.241 10.75C10.978 10.75 11.262 11.48 11.29 11.557C11.392 11.86 11.675 12.061 11.994 12.065C11.997 12.065 12 12.065 12.002 12.065C12.318 12.065 12.603 11.863 12.71 11.565C12.739 11.482 13.023 10.751 13.76 10.751C13.762 10.751 13.763 10.751 13.765 10.751C14.235 10.753 14.6 10.911 14.853 11.219C15.213 11.659 15.339 12.3811 15.188 13.1491Z" fill="currentColor"/>
</svg>

<svg xmlns="http://www.w3.org/2000/svg" width="24" height="24" fill="none"><path fill="currentColor" d="m20.208 8.141-6.12-5.131a3.244 3.244 0 0 0-4.176 0l-6.12 5.131c-.956.793-1.542 1.387-1.542 3.509V18c0 2.418 1.332 3.75 3.75 3.75h12c2.418 0 3.75-1.332 3.75-3.75v-6.35c0-2.122-.586-2.716-1.542-3.509ZM20.25 18c0 1.577-.673 2.25-2.25 2.25H6c-1.577 0-2.25-.673-2.25-2.25v-6.35c0-1.526.252-1.735.999-2.355l6.126-5.136a1.75 1.75 0 0 1 2.25 0l6.126 5.136c.747.62.999.829.999 2.355V18Zm-6.479-8.75h-.014c-.769 0-1.348.317-1.758.716a2.463 2.463 0 0 0-1.759-.716h-.014c-.923.004-1.697.356-2.238 1.018-.652.795-.889 1.95-.65 3.17.589 3.014 4.199 4.677 4.353 4.746a.753.753 0 0 0 .618 0c.153-.069 3.764-1.732 4.353-4.746.238-1.221 0-2.376-.65-3.17-.542-.662-1.317-1.014-2.241-1.018Zm1.417 3.9c-.355 1.817-2.4 3.082-3.188 3.51-.788-.427-2.833-1.692-3.188-3.51-.15-.769-.024-1.491.338-1.932.252-.309.618-.466 1.086-.468h.005c.737 0 1.021.73 1.049.807a.75.75 0 0 0 .704.508h.008a.756.756 0 0 0 .708-.5c.029-.083.313-.814 1.05-.814h.005c.47.002.835.16 1.088.468.36.44.486 1.162.335 1.93Z"/></svg>
